shield-sword.svg

<svg fill="currentColor" viewBox="0 0 24 24"><path d="M12 1 3 5v6c0 5.5 3.8 10.7 9 12 5.2-1.3 9-6.5 9-12V5zm3 14h-2v3h-2v-3H9v-2h2l-1-5.9 2-1.6 2 1.6-1 5.9h2z"/></svg>

<svg  viewBox="0 0 24 24" fill="currentColor"><path  d="M12 1L3 5V11C3 16.5 6.8 21.7 12 23C17.2 21.7 21 16.5 21 11V5L12 1M15 15H13V18H11V15H9V13H11L10 7.1L12 5.5L14 7.1L13 13H15V15Z"/></svg>
